X: 14258
T: Fyrish, The
R: reel
M: 4/4
K: Bminor
|:B2Bc dcde|faaf gfed|cAAB cAeA|eaec dcBA|
B2Bc dcde|fbbf afef|bfaf efae|1 ceae cBBA:|2 ceae cBBc||
|:d2de fefg|a2g2fedB|A2AB cBcd|eaec dcBA|
B2Bc dcde|fbbf afef|bfaf efae|1 ceae cBBc:|2 ceae cBB2||

